images/news-1.svg

<svg width="56" height="64" viewBox="0 0 56 64" fill="none" xmlns="http://www.w3.org/2000/svg">
<path d="M2.20935 60.1726V55.4166H53.3609V60.1726H2.20935ZM51.8315 58.6439V56.7754H3.56886V58.6439H51.8315Z" fill="#1771E6"/>
<path d="M2.37915 59.8328V55.5866H53.0209V59.8328H2.37915ZM52.1712 56.4358H3.39878V58.9835H52.3411V56.4358H52.1712Z" fill="#1771E6"/>
<path d="M0.67981 63.4002V58.6439H54.8903V63.4002H0.67981ZM53.3608 62.0413V60.1727H2.03932V62.0413H53.3608Z" fill="#1771E6"/>
<path d="M1.01965 63.2299V58.9835H54.5504V63.2299H1.01965ZM53.7007 59.8328H1.86935V62.3806H53.7007V59.8328Z" fill="#1771E6"/>
<path d="M3.90869 22.9741L27.7001 5.64868L51.4915 22.9741H3.90869ZM47.0731 21.4454L27.87 7.34725L8.66698 21.4454H47.0731Z" fill="#1771E6"/>
<path d="M50.6418 22.6343L27.7001 5.98828L4.92834 22.6343H50.6418ZM47.9228 21.785H7.47742L27.7001 7.00742L47.9228 21.785Z" fill="#1771E6"/>
<path d="M0 27.2205V20.4262L27.7 0.213257L55.4 20.4262V27.2205H0ZM54.0405 25.8617V21.2755L27.7 2.08168L1.35951 21.2755V25.8617H54.0405Z" fill="#1771E6"/>
<path d="M27.7 0.722382L0.339844 20.7655V27.0502H55.23V20.7655L27.7 0.722382ZM54.3803 26.0311H1.18954V21.1052L27.8699 1.74152L54.5503 21.1052V26.0311H54.3803Z" fill="#1771E6"/>
<path d="M3.73865 56.7754V52.0197H51.8313V56.7754H3.73865ZM50.3019 55.4166V53.5483H5.2681V55.4166H50.3019Z" fill="#1771E6"/>
<path d="M4.07861 56.4358V52.1895H51.4915V56.4358H4.07861ZM50.6418 53.2086H4.92831V55.7564H50.6418V53.2086Z" fill="#1771E6"/>
<path d="M5.94788 51.3402V30.6178H6.28775C7.13744 30.6178 7.98713 29.9383 8.32701 29.089V28.9192H9.34664V29.089C9.51658 29.9383 10.3663 30.6178 11.3859 30.6178H11.7258V51.3402H5.94788ZM10.5362 50.1512V30.4479C9.85645 30.278 9.34664 29.5986 8.83682 29.089C8.49694 29.5986 7.81719 30.278 7.13744 30.4479V50.1512H10.5362Z" fill="#1771E6"/>
<path d="M11.386 30.9575C10.3664 30.9575 9.34673 30.2781 9.17679 29.2589H8.49704C8.15716 30.2781 7.30746 30.9575 6.28783 30.9575C4.92832 30.9575 3.90869 29.9384 3.90869 28.5795C3.90869 27.2206 4.92832 26.2015 6.28783 26.2015H11.386C12.7455 26.2015 13.7651 27.2206 13.7651 28.5795C13.7651 29.7685 12.7455 30.9575 11.386 30.9575ZM11.386 27.0508H6.28783C5.43814 27.0508 4.75838 27.7302 4.75838 28.5795C4.75838 29.4288 5.43814 30.1082 6.28783 30.1082C7.13753 30.1082 7.81728 29.4288 7.81728 28.5795V28.4096H10.0265V28.5795C10.0265 29.4288 10.7062 30.1082 11.5559 30.1082C12.4056 30.1082 13.0854 29.4288 13.0854 28.5795C12.9154 27.7302 12.2357 27.0508 11.386 27.0508ZM11.386 29.2589C11.0461 29.2589 10.7062 28.9192 10.7062 28.5795C10.7062 28.2398 11.0461 27.9001 11.386 27.9001C11.7259 27.9001 12.0658 28.2398 12.0658 28.5795C12.0658 28.9192 11.7259 29.2589 11.386 29.2589ZM6.28783 29.2589C5.94795 29.2589 5.60808 28.9192 5.60808 28.5795C5.60808 28.2398 5.94795 27.9001 6.28783 27.9001C6.62771 27.9001 6.96759 28.2398 6.96759 28.5795C6.96759 28.9192 6.62771 29.2589 6.28783 29.2589Z" fill="#1771E6"/>
<path d="M5.09814 53.5483V50.1512H12.4055V53.5483H5.09814ZM11.046 52.0196V51.6799H6.62759V52.0196H11.046Z" fill="#1771E6"/>
<path d="M12.2357 53.2085H5.60803V50.4908H12.2357V53.2085ZM11.216 52.3592V51.34H6.28779V52.3592H11.216Z" fill="#1771E6"/>
<path d="M18.5234 51.3402V30.6176H18.8633C19.713 30.6176 20.5627 29.9381 20.9026 29.0889V28.919H21.9222V29.0889C22.0921 29.9381 22.9418 30.6176 23.9615 30.6176H24.3013V51.3402H18.5234ZM23.1118 50.1512V29.9381C22.432 29.7683 21.9222 29.2587 21.4124 28.7491C21.0725 29.2587 20.3928 29.7683 19.713 29.9381V50.1512H23.1118Z" fill="#1771E6"/>
<path d="M23.9613 30.9575C22.9417 30.9575 21.9221 30.2781 21.7521 29.2589H21.0724C20.7325 30.2781 19.8828 30.9575 18.8632 30.9575C17.5036 30.9575 16.484 29.9384 16.484 28.5795C16.484 27.2206 17.5036 26.2015 18.8632 26.2015H23.9613C25.3208 26.2015 26.3405 27.2206 26.3405 28.5795C26.3405 29.7685 25.3208 30.9575 23.9613 30.9575ZM23.9613 27.0508H18.8632C18.0135 27.0508 17.3337 27.7302 17.3337 28.5795C17.3337 29.4288 18.0135 30.1082 18.8632 30.1082C19.7128 30.1082 20.3926 29.4288 20.3926 28.5795V28.4096H22.6018V28.5795C22.6018 29.4288 23.2816 30.1082 24.1313 30.1082C24.9809 30.1082 25.6607 29.4288 25.6607 28.5795C25.4908 27.7302 24.811 27.0508 23.9613 27.0508ZM23.9613 29.2589C23.6214 29.2589 23.2816 28.9192 23.2816 28.5795C23.2816 28.2398 23.6214 27.9001 23.9613 27.9001C24.3012 27.9001 24.6411 28.2398 24.6411 28.5795C24.811 28.9192 24.4711 29.2589 23.9613 29.2589ZM18.8632 29.2589C18.5233 29.2589 18.1834 28.9192 18.1834 28.5795C18.1834 28.2398 18.5233 27.9001 18.8632 27.9001C19.203 27.9001 19.5429 28.2398 19.5429 28.5795C19.5429 28.9192 19.203 29.2589 18.8632 29.2589Z" fill="#1771E6"/>
<path d="M17.8436 53.5483V50.1512H25.151V53.5483H17.8436ZM23.6215 52.0196V51.6799H19.2031V52.0196H23.6215Z" fill="#1771E6"/>
<path d="M24.811 53.2085H18.1833V50.4908H24.811V53.2085ZM23.9613 52.3592V51.34H19.033V52.3592H23.9613Z" fill="#1771E6"/>
<path d="M31.0989 51.3402V30.6176H31.4387C32.2884 30.6176 33.1381 29.9381 33.478 29.0889V28.919H34.4976V29.0889C34.6676 29.9381 35.5173 30.6176 36.5369 30.6176H36.8768V51.3402H31.0989ZM35.6872 50.1512V29.9381C35.0074 29.7683 34.4976 29.2587 33.9878 28.7491C33.6479 29.2587 32.9682 29.7683 32.2884 29.9381V50.1512H35.6872Z" fill="#1771E6"/>
<path d="M36.7067 30.9575C35.687 30.9575 34.6674 30.2781 34.4975 29.2589H33.8177C33.4778 30.2781 32.6281 30.9575 31.6085 30.9575C30.249 30.9575 29.2294 29.9384 29.2294 28.5795C29.2294 27.2206 30.249 26.2015 31.6085 26.2015H36.7067C38.0662 26.2015 39.0858 27.2206 39.0858 28.5795C39.0858 29.7685 37.8962 30.9575 36.7067 30.9575ZM36.7067 27.0508H31.6085C30.7588 27.0508 30.0791 27.7302 30.0791 28.5795C30.0791 29.4288 30.7588 30.1082 31.6085 30.1082C32.4582 30.1082 33.138 29.4288 33.138 28.5795V28.4096H35.3472V28.5795C35.3472 29.4288 36.0269 30.1082 36.8766 30.1082C37.7263 30.1082 38.4061 29.4288 38.4061 28.5795C38.2361 27.7302 37.5564 27.0508 36.7067 27.0508ZM36.7067 29.2589C36.3668 29.2589 36.0269 28.9192 36.0269 28.5795C36.0269 28.2398 36.3668 27.9001 36.7067 27.9001C37.0466 27.9001 37.3864 28.2398 37.3864 28.5795C37.3864 28.9192 37.0466 29.2589 36.7067 29.2589ZM31.4386 29.2589C31.0987 29.2589 30.7588 28.9192 30.7588 28.5795C30.7588 28.2398 31.0987 27.9001 31.4386 27.9001C31.7784 27.9001 32.1183 28.2398 32.1183 28.5795C32.1183 28.9192 31.9484 29.2589 31.4386 29.2589Z" fill="#1771E6"/>
<path d="M30.4191 53.5483V50.1512H37.7264V53.5483H30.4191ZM36.197 52.0196V51.6799H31.7786V52.0196H36.197Z" fill="#1771E6"/>
<path d="M37.3865 53.2085H30.7589V50.4908H37.3865V53.2085ZM36.5368 52.3592V51.34H31.6086V52.3592H36.5368Z" fill="#1771E6"/>
<path d="M42.9946 53.5483V50.1512H50.302V53.5483H42.9946ZM48.7725 52.0196V51.6799H44.3541V52.0196H48.7725Z" fill="#1771E6"/>
<path d="M49.962 53.2085H43.3344V50.4908H49.962V53.2085ZM49.1123 52.3592V51.34H44.184V52.3592H49.1123Z" fill="#1771E6"/>
<path d="M43.8442 51.3402V30.6178H44.0142C44.8639 30.6178 45.7136 29.9383 46.0534 29.089V28.9192H47.0731V29.089C47.243 29.9383 48.0927 30.6178 49.1123 30.6178H49.4522V51.3402H43.8442ZM48.4326 50.1512V30.6178C47.7528 30.4479 47.243 29.4288 46.7332 28.9192C46.3933 29.4288 45.7136 30.4479 45.0338 30.6178V50.1512H48.4326Z" fill="#1771E6"/>
<path d="M49.2822 30.9575C48.2626 30.9575 47.243 30.2781 47.073 29.2589H46.3933C46.0534 30.2781 45.2037 30.9575 44.1841 30.9575C42.8246 30.9575 41.8049 29.9384 41.8049 28.5795C41.8049 27.2206 42.8246 26.2015 44.1841 26.2015H49.2822C50.6417 26.2015 51.6614 27.2206 51.6614 28.5795C51.6614 29.7685 50.6417 30.9575 49.2822 30.9575ZM49.2822 27.0508H44.1841C43.3344 27.0508 42.6546 27.7302 42.6546 28.5795C42.6546 29.4288 43.3344 30.1082 44.1841 30.1082C45.0338 30.1082 45.7135 29.4288 45.7135 28.5795V28.4096H47.9227V28.5795C47.9227 29.4288 48.6025 30.1082 49.4522 30.1082C50.3019 30.1082 50.9816 29.4288 50.9816 28.5795C50.8117 27.7302 50.1319 27.0508 49.2822 27.0508ZM49.2822 29.2589C48.9424 29.2589 48.6025 28.9192 48.6025 28.5795C48.6025 28.2398 48.9424 27.9001 49.2822 27.9001C49.6221 27.9001 49.962 28.2398 49.962 28.5795C49.962 28.9192 49.6221 29.2589 49.2822 29.2589ZM44.0141 29.2589C43.6743 29.2589 43.3344 28.9192 43.3344 28.5795C43.3344 28.2398 43.6743 27.9001 44.0141 27.9001C44.354 27.9001 44.6939 28.2398 44.6939 28.5795C44.8638 28.9192 44.524 29.2589 44.0141 29.2589Z" fill="#1771E6"/>
</svg>

<svg width="56" height="64" fill="none" xmlns="http://www.w3.org/2000/svg"><path d="M2.21 60.173v-4.756h51.15v4.756H2.21zm49.621-1.53v-1.868H3.57v1.869h48.26z" fill="#1771E6"/><path d="M2.38 59.833v-4.246h50.64v4.246H2.38zm49.791-3.397H3.4v2.547h48.94v-2.547h-.17z" fill="#1771E6"/><path d="M.68 63.4v-4.756h54.21V63.4H.68zm52.68-1.359v-1.868H2.04v1.868h51.32z" fill="#1771E6"/><path d="M1.02 63.23v-4.246h53.53v4.246H1.02zm52.68-3.397H1.87v2.548H53.7v-2.548zM3.909 22.974L27.7 5.65l23.792 17.325H3.909zm43.164-1.529L27.87 7.347 8.667 21.445h38.406z" fill="#1771E6"/><path d="M50.642 22.634L27.7 5.988 4.928 22.634h45.714zm-2.72-.849H7.478L27.7 7.007l20.223 14.778z" fill="#1771E6"/><path d="M0 27.22v-6.794L27.7.213l27.7 20.213v6.795H0zm54.04-1.358v-4.586L27.7 2.082 1.36 21.276v4.586h52.68z" fill="#1771E6"/><path d="M27.7.722L.34 20.765v6.285h54.89v-6.285L27.7.723zm26.68 25.31H1.19v-4.927L27.87 1.742l26.68 19.363v4.926h-.17zM3.739 56.775V52.02H51.83v4.755H3.74zm46.563-1.358v-1.869H5.268v1.869h45.034z" fill="#1771E6"/><path d="M4.079 56.436V52.19h47.413v4.246H4.079zm46.563-3.227H4.928v2.547h45.714V53.21zM5.948 51.34V30.618h.34c.85 0 1.7-.68 2.039-1.529v-.17h1.02v.17c.17.85 1.02 1.529 2.039 1.529h.34V51.34H5.948zm4.588-1.189V30.448c-.68-.17-1.19-.85-1.7-1.359-.34.51-1.019 1.189-1.699 1.359V50.15h3.4z" fill="#1771E6"/><path d="M11.386 30.957c-1.02 0-2.04-.679-2.21-1.698h-.679c-.34 1.02-1.19 1.698-2.21 1.698-1.359 0-2.378-1.019-2.378-2.378 0-1.358 1.02-2.378 2.379-2.378h5.098c1.36 0 2.38 1.02 2.38 2.378 0 1.19-1.02 2.378-2.38 2.378zm0-3.906H6.288c-.85 0-1.53.68-1.53 1.529 0 .849.68 1.528 1.53 1.528s1.53-.68 1.53-1.529v-.17h2.209v.17c0 .85.68 1.53 1.529 1.53.85 0 1.53-.68 1.53-1.53-.17-.849-.85-1.528-1.7-1.528zm0 2.208c-.34 0-.68-.34-.68-.68s.34-.679.68-.679.68.34.68.68-.34.679-.68.679zm-5.098 0c-.34 0-.68-.34-.68-.68s.34-.679.68-.679.68.34.68.68-.34.679-.68.679zm-1.19 24.289v-3.397h7.308v3.397H5.098zm5.948-1.528v-.34H6.628v.34h4.418z" fill="#1771E6"/><path d="M12.236 53.209H5.608V50.49h6.628v2.718zm-1.02-.85V51.34H6.288v1.02h4.928zm7.307-1.019V30.618h.34c.85 0 1.7-.68 2.04-1.53v-.169h1.02v.17c.17.85 1.019 1.529 2.039 1.529h.34V51.34h-5.779zm4.589-1.189V29.938c-.68-.17-1.19-.68-1.7-1.189-.34.51-1.02 1.02-1.699 1.19V50.15h3.399z" fill="#1771E6"/><path d="M23.961 30.957c-1.02 0-2.039-.679-2.209-1.698h-.68c-.34 1.02-1.19 1.698-2.209 1.698-1.36 0-2.379-1.019-2.379-2.378 0-1.358 1.02-2.378 2.38-2.378h5.097c1.36 0 2.38 1.02 2.38 2.378 0 1.19-1.02 2.378-2.38 2.378zm0-3.906h-5.098c-.85 0-1.53.68-1.53 1.529 0 .849.68 1.528 1.53 1.528s1.53-.68 1.53-1.529v-.17h2.209v.17c0 .85.68 1.53 1.53 1.53.849 0 1.529-.68 1.529-1.53-.17-.849-.85-1.528-1.7-1.528zm0 2.208c-.34 0-.68-.34-.68-.68s.34-.679.68-.679.68.34.68.68c.17.34-.17.679-.68.679zm-5.098 0c-.34 0-.68-.34-.68-.68s.34-.679.68-.679.68.34.68.68-.34.679-.68.679zm-1.019 24.289v-3.397h7.307v3.397h-7.307zm5.777-1.528v-.34h-4.418v.34h4.419z" fill="#1771E6"/><path d="M24.811 53.209h-6.628V50.49h6.628v2.718zm-.85-.85V51.34h-4.928v1.02h4.928zm7.138-1.019V30.618h.34c.85 0 1.7-.68 2.039-1.53v-.169h1.02v.17c.17.85 1.02 1.529 2.039 1.529h.34V51.34h-5.778zm4.588-1.189V29.938c-.68-.17-1.19-.68-1.7-1.189-.34.51-1.019 1.02-1.699 1.19V50.15h3.4z" fill="#1771E6"/><path d="M36.707 30.957c-1.02 0-2.04-.679-2.21-1.698h-.68c-.34 1.02-1.189 1.698-2.209 1.698-1.359 0-2.379-1.019-2.379-2.378 0-1.358 1.02-2.378 2.38-2.378h5.098c1.36 0 2.379 1.02 2.379 2.378 0 1.19-1.19 2.378-2.38 2.378zm0-3.906h-5.099c-.85 0-1.529.68-1.529 1.529 0 .849.68 1.528 1.53 1.528s1.529-.68 1.529-1.529v-.17h2.21v.17c0 .85.679 1.53 1.529 1.53.85 0 1.53-.68 1.53-1.53-.17-.849-.85-1.528-1.7-1.528zm0 2.208c-.34 0-.68-.34-.68-.68s.34-.679.68-.679.68.34.68.68-.34.679-.68.679zm-5.268 0c-.34 0-.68-.34-.68-.68s.34-.679.68-.679.68.34.68.68-.17.679-.68.679zM30.42 53.548v-3.397h7.306v3.397H30.42zm5.777-1.528v-.34h-4.418v.34h4.418z" fill="#1771E6"/><path d="M37.386 53.209H30.76V50.49h6.627v2.718zm-.85-.85V51.34H31.61v1.02h4.928zm6.459 1.189v-3.397h7.307v3.397h-7.307zm5.778-1.528v-.34h-4.419v.34h4.419z" fill="#1771E6"/><path d="M49.962 53.209h-6.628V50.49h6.628v2.718zm-.85-.85V51.34h-4.928v1.02h4.928z" fill="#1771E6"/><path d="M43.844 51.34V30.618h.17c.85 0 1.7-.68 2.04-1.529v-.17h1.02v.17c.169.85 1.019 1.529 2.038 1.529h.34V51.34h-5.608zm4.589-1.189V30.618c-.68-.17-1.19-1.19-1.7-1.699-.34.51-1.02 1.529-1.7 1.699V50.15h3.4z" fill="#1771E6"/><path d="M49.282 30.957c-1.02 0-2.039-.679-2.209-1.698h-.68c-.34 1.02-1.19 1.698-2.209 1.698-1.36 0-2.38-1.019-2.38-2.378 0-1.358 1.02-2.378 2.38-2.378h5.098c1.36 0 2.38 1.02 2.38 2.378 0 1.19-1.02 2.378-2.38 2.378zm0-3.906h-5.098c-.85 0-1.53.68-1.53 1.529 0 .849.68 1.528 1.53 1.528s1.53-.68 1.53-1.529v-.17h2.209v.17c0 .85.68 1.53 1.53 1.53.849 0 1.529-.68 1.529-1.53-.17-.849-.85-1.528-1.7-1.528zm0 2.208c-.34 0-.68-.34-.68-.68s.34-.679.68-.679.68.34.68.68-.34.679-.68.679zm-5.268 0c-.34 0-.68-.34-.68-.68s.34-.679.68-.679.68.34.68.68c.17.34-.17.679-.68.679z" fill="#1771E6"/></svg>
